X:1

T:Roaring Willie’s Jig [1]

M:9/8

L:1/8

R:Slip Jig

S:White’s Unique Collection (1896), No. 18

Z:AK/Fiddler’s Companion

K:A

f || ecA ABA cef | =gfg B=GB (d2f) | ecA ABA ce^g | aga cAc efg |

agf (ec)A cef | (=gf)g B=GB (d2B) | ABA (c2A) cea | (cA)c BGB A2 ||

f | ecA acA ecA | B=GB =gdB (d2f) | ecA acA ecA | a^gf ecA Bcd |

ecA acA ecA | B=GB =gdB (d2f) | ecA acA ecA | a^gf ecA Bcd ||

 

ROARIN' WILLIE [2]. See "Rantin' Roarin' Willie."

                                   


ROAST BEEF OF OLD ENGLAND, THE. English; Air, Morris Dance Tune (6/8 time). B Flat Major (Chappell): D Major (Bacon). Standard tuning. One part (Chappell): AB (Bacon). The composer of both air and lyrics was Richard Leveridge, a celebrated bass singer, and it quickly became quite popular, taking on patriotic, nationalistic and martial trappings. Though extolling the virtues of England, it was very well‑known and popular among Colonial soldiers, who recognized it as the signal for representatives to come and draw the rations that were ready for distribution to the rank and file. The air became married to ritual in the British army, as it was (and is today) traditionally played when English officers went to dine. James Murray, writing in his book Music of the Scottish Regiments (Edinburgh, 1994), says “Roast Beef of Old England” was played on the fife and drum during Wellington’s Peninsula campaigns (early 19th century) which “summoned the soldiers to dinner, as it was later to call the officers.”  The tune was written in 1736, and the ceremony recorded in literature in 1813, though "it undoubtedly existed much earlier" (Winscott, 1970; 268). The American military adopted the English tradition, although amended the title to simply “Roast Beef.” It was the call to dinner—the mid-day meal—and the signal to draw provisions, as it was in England. The U.S. Navy employed the tune as the evening call to mess for officers aboard battleships as late as 1892, played by fife and drums.

***

Early published versions appear in Walsh's British Musical Miscellany and The Universal Musician. A morris dance version was collected from the village of Adderbury, Oxfordshire, in England's Cotswolds, where the dancers sang this chorus during the performance:

***

Oh! the roast beef of old England, and

Oh! for old England's roast beef (x2)

***

Calais Gate, or The Roast Beef of Old England. William Hogarth (1797-1764)

***

In the Mayor of Casterbridge, the Devonshire author and musician Thomas Hardy has the Casterbridge village band play this tune early in the novella. Bacon (The Morris Ring), 1974; pg. 12. Chappell (Popular Music of the Olden Time), vol. 2, 1859; pgs. 95‑96. Johnson (A Further Collection of Dances, Marches, Minuetts and Duetts of the Latter 18th Century), 1998; pg. 3. Mattson & Walz (Old Fort Snelling…Fife), 1974; pg. 98.

